X: 27289
T: Miss Walsh
R: jig
M: 6/8
K: Amajor
EAA cAA|eAA cAA|EAA cAG|GAB BGE|
EAA cAA|eAA cAA|aga ecA|BAA A3:|
aga ecA|cAc efg|aga ecA|BAF Ace|
aga ecA|cAc efg|aga ecA|BAA A3:|
EAA cee|dff|cee|EAA cee|BAF AFE|
EAA cee|dff|cee|aga ecA|BAA A3:|

